X:1
T:James Gibb editions
T:O day of joy, when first the light - Barnby
%%score [ ( 1 2 ) ( 3 4 ) ]
L:1/8
Q:1/4=72
M:4/4
K:C
V:1 treble nm="Midi_74"
V:2 treble 
V:3 bass nm="Midi_74"
V:4 bass 
V:1
"^O day of joy,when first the light""^Joseph Barnby\n(1838-96)""^L. M." c2 | G2 A2"^1" B2 c2 | %2
 c2 B2 c2 || e2 | d2 c2"^1" Bc d2 | B2 A2 G2 ||[M:4/4] A2 | A2 B^c d2 G2 | G2 AB c2 ||"^1" A2 | %10
 G2 EF G2 CD | E2 D2 C4 || F4 E4 |] %13
V:2
 G2 | G2 ^F2 G2 G2 | A2 G2 G2 || ^F2 | G3 ^F G2 D2 | E2 ^F2 G2 ||[M:4/4] E2 | A2 G2 FE D2 | %8
 G2 F2 C2 || D2 | D2 E2 D2 C2 | C2 B,2 C4 || C4 C4 |] %13
V:3
 E2 | D2 C2 D2 E2 | FE D2 E2 || C2 | B,2 A,2 G,2 G,2 | G,2 C2 B,2 ||[M:4/4] ^C2 | D2 A,2 A,2 B,2 | %8
 C2 F,2 G,2 || A,2 | D,2 G,2 G,D, E,F, |"^1" G,2"^1" F,2 E,4 || A,4 G,4 |] %13
V:4
 C2 | B,2 A,2 G,=F, E,2 | D,2 G,2 C,2 || A,,2 | B,,2 D,2 E,2 B,,2- | C,2 D,2 G,2 ||[M:4/4] G,2 | %7
 !courtesy!=F,2 E,2 D,2 F,2 | E,2 D,2 E,2 || F,2 | B,,2 C,2 B,,2 A,,2 | G,,2 G,,2 C,4 || %12
 F,,4 C,4 |] %13

